X: 1
T: Campbells Are Coming, The
M: 9/8
L: 1/8
R: slip jig
K: Gmaj
GAB GAB E2D|GAB d2d dBA|GAB GAB e2d|B2e edB dBA:|
B2e e2f ~g3|B2e edB dBA|B2e e2f g2g|agf gfe dBA:|
